X: 8
T: Dowd's Favourite
R: reel
M: 4/4
L: 1/8
K: Gdor
K: Gdor
DGGA BGAF|DFFD CFAF|DGGA ~B3d|cAfc AGGF|
DGGA BGAF|DFFD CFAF|DGGA ~B3d|1cAfc AGGF:|2cAfc AGGA|]!
B2dB FBdB|DBdB cAFA|B2dB FBdB|~c2Ac BGGA|!
B2dB FBdB|DBdB cAFA|GBAc Bdge|1fdcA BGGA:|2fdcA BGBd|]!
gd~d2 gbag|fc~c2 fgaf|gd~d2 gbag|fdcA BGBd|!
gd~d2 gbag|fc~c2 fga G|~B2BA Bdge|1fdcA BGBd:|2fdcA dBAF|]!


Tune 229	Setting 12920

